X: 16846
T: Harvest Moon
R: reel
M: 4/4
K: Adorian
Bd|:"Am"eA ~A2A2BA|"G"GEDE GABd|"Am"eA ~A2 cd eg|"Fmaj7"a2 ge "G"d2gf|
"Am"eA ~A2 AcBA|"G"GEDE GA Bd|"Am"e2 af "G"gedB|"Em"GA BG "Am"A2:|
"C"cBcd eg (3ggg|eaaf g2 ed|cBcd eg3|a2ge d2ed|
"D7"cBc d eg (3ggg|eaaf g2ed|"Fmaj7"BcBA "G"GEDE|1 "Em"GABG "Am"~A3 B:|2 "Em"GABG "Am"A2||

